humanity-icon-theme/Humanity/apps/64/internet-feed-reader.svg

<?xml version="1.0" encoding="UTF-8" standalone="no"?>
<!-- Created with Inkscape (http://www.inkscape.org/) -->
<svg
   xmlns:svg="http://www.w3.org/2000/svg"
   xmlns="http://www.w3.org/2000/svg"
   xmlns:xlink="http://www.w3.org/1999/xlink"
   version="1.0"
   width="64"
   height="64"
   id="svg3637">
  <defs
     id="defs3639">
    <linearGradient
       id="linearGradient2490-113-765">
      <stop
         id="stop3686"
         style="stop-color:#861318;stop-opacity:1"
         offset="0" />
      <stop
         id="stop3688"
         style="stop-color:#f67e2a;stop-opacity:1"
         offset="1" />
    </linearGradient>
    <linearGradient
       id="linearGradient3839">
      <stop
         id="stop3841"
         style="stop-color:#ffed8c;stop-opacity:1"
         offset="0" />
      <stop
         id="stop3843"
         style="stop-color:#fb9858;stop-opacity:1"
         offset="0.26238" />
      <stop
         id="stop3845"
         style="stop-color:#dc572a;stop-opacity:1"
         offset="0.66093999" />
      <stop
         id="stop3847"
         style="stop-color:#9f3110;stop-opacity:1"
         offset="1" />
    </linearGradient>
    <linearGradient
       id="linearGradient8265-821-176-38-919-66-249-7-7">
      <stop
         id="stop2687-1-9"
         style="stop-color:#ffffff;stop-opacity:1"
         offset="0" />
      <stop
         id="stop2689-5-4"
         style="stop-color:#ffffff;stop-opacity:0"
         offset="1" />
    </linearGradient>
    <linearGradient
       id="linearGradient3688">
      <stop
         id="stop3690"
         style="stop-color:#000000;stop-opacity:1"
         offset="0" />
      <stop
         id="stop3692"
         style="stop-color:#000000;stop-opacity:0"
         offset="1" />
    </linearGradient>
    <radialGradient
       cx="4.9929786"
       cy="43.5"
       r="2.5"
       fx="4.9929786"
       fy="43.5"
       id="radialGradient2464"
       xlink:href="#linearGradient3688"
       gradientUnits="userSpaceOnUse"
       gradientTransform="matrix(2.4045408,0,0,0.8,-52.014245,-79.800002)" />
    <radialGradient
       cx="4.9929786"
       cy="43.5"
       r="2.5"
       fx="4.9929786"
       fy="43.5"
       id="radialGradient2466"
       xlink:href="#linearGradient3688"
       gradientUnits="userSpaceOnUse"
       gradientTransform="matrix(2.4045408,0,0,0.8,27.985756,10.199998)" />
    <radialGradient
       cx="4.9929786"
       cy="43.5"
       r="2.5"
       fx="4.9929786"
       fy="43.5"
       id="radialGradient2468"
       xlink:href="#linearGradient3688"
       gradientUnits="userSpaceOnUse"
       gradientTransform="matrix(2.4045408,0,0,0.8,-52.014245,-79.800002)" />
    <radialGradient
       cx="4.9929786"
       cy="43.5"
       r="2.5"
       fx="4.9929786"
       fy="43.5"
       id="radialGradient2470"
       xlink:href="#linearGradient3688"
       gradientUnits="userSpaceOnUse"
       gradientTransform="matrix(2.4045408,0,0,0.8,27.985756,10.199998)" />
    <radialGradient
       cx="-8.3116722"
       cy="44.750004"
       r="2.5"
       fx="-8.3116722"
       fy="44.750004"
       id="radialGradient2505"
       xlink:href="#linearGradient3688"
       gradientUnits="userSpaceOnUse"
       gradientTransform="matrix(2.4045407,0,0,1,30.985756,14.749996)" />
    <radialGradient
       cx="12.011247"
       cy="10.290615"
       r="19.99999"
       fx="12.011247"
       fy="10.290615"
       id="radialGradient2545"
       xlink:href="#linearGradient3839"
       gradientUnits="userSpaceOnUse"
       gradientTransform="matrix(7.9627606e-8,2.7221385,-3.9267063,0,66.600149,-13.809376)" />
    <linearGradient
       x1="24"
       y1="44"
       x2="24"
       y2="3.8990016"
       id="linearGradient2547"
       xlink:href="#linearGradient2490-113-765"
       gradientUnits="userSpaceOnUse"
       gradientTransform="matrix(1.3212833,0,0,1.3212833,0.3756922,1.3327032)" />
    <linearGradient
       x1="29.072016"
       y1="3.6633711"
       x2="29.072016"
       y2="44.461002"
       id="linearGradient3343"
       xlink:href="#linearGradient8265-821-176-38-919-66-249-7-7"
       gradientUnits="userSpaceOnUse"
       gradientTransform="matrix(1.3212833,0,0,1.3212833,0.3756922,1.3327032)" />
    <linearGradient
       x1="10.390088"
       y1="36.082268"
       x2="10.390088"
       y2="43.643398"
       id="linearGradient3351"
       xlink:href="#linearGradient8265-821-176-38-919-66-249-7-7"
       gradientUnits="userSpaceOnUse"
       gradientTransform="matrix(1.3212833,0,0,1.3212833,0.3756922,1.3327032)" />
    <linearGradient
       x1="15.857638"
       y1="20.712286"
       x2="15.857638"
       y2="43.808498"
       id="linearGradient3353"
       xlink:href="#linearGradient8265-821-176-38-919-66-249-7-7"
       gradientUnits="userSpaceOnUse"
       gradientTransform="matrix(1.3212833,0,0,1.3212833,0.3756922,1.3327032)" />
    <linearGradient
       x1="16.626165"
       y1="15.298182"
       x2="20.054544"
       y2="24.627615"
       id="linearGradient3357"
       xlink:href="#linearGradient8265-821-176-38-919-66-249-7-7"
       gradientUnits="userSpaceOnUse"
       gradientTransform="matrix(1.2971946,0,0,1.379076,5.543755,6.921225)" />
    <radialGradient
       cx="19.043348"
       cy="10.290615"
       r="19.99999"
       fx="19.043348"
       fy="10.290615"
       id="radialGradient3365"
       xlink:href="#linearGradient3839"
       gradientUnits="userSpaceOnUse"
       gradientTransform="matrix(0,1.7626771,-2.5426757,-7.4377988e-8,52.357625,2.8689464)" />
    <linearGradient
       x1="24"
       y1="44"
       x2="24"
       y2="26.613232"
       id="linearGradient3367"
       xlink:href="#linearGradient2490-113-765"
       gradientUnits="userSpaceOnUse"
       gradientTransform="matrix(1.3212833,0,0,1.3212833,0.3756922,1.3327032)" />
  </defs>
  <g
     transform="matrix(1.3333333,0,0,1.3333333,-20.333332,-0.6666651)"
     id="g3619">
    <rect
       width="6"
       height="4"
       x="-40"
       y="-47"
       transform="scale(-1,-1)"
       id="rect3621"
       style="opacity:0.3;fill:url(#radialGradient2464);fill-opacity:1;stroke:none" />
    <rect
       width="6"
       height="4"
       x="40"
       y="43"
       id="rect3623"
       style="opacity:0.3;fill:url(#radialGradient2466);fill-opacity:1;stroke:none" />
  </g>
  <g
     transform="matrix(1.3333333,0,0,1.3333333,0.6666678,-0.6666651)"
     id="g3615">
    <rect
       width="6"
       height="4"
       x="-40"
       y="-47"
       transform="scale(-1,-1)"
       id="rect3611"
       style="opacity:0.3;fill:url(#radialGradient2468);fill-opacity:1;stroke:none" />
    <rect
       width="6"
       height="4"
       x="40"
       y="43"
       id="rect2801"
       style="opacity:0.3;fill:url(#radialGradient2470);fill-opacity:1;stroke:none" />
  </g>
  <path
     d="M 17,59.5 C 17,60.880711 14.313708,62 11,62 C 7.6862913,62 4.9999999,60.880711 4.9999999,59.5 C 4.9999999,58.119289 7.6862913,57 11,57 C 14.313708,57 17,58.119289 17,59.5 z"
     id="path3629"
     style="opacity:0.3;fill:url(#radialGradient2505);fill-opacity:1;fill-rule:nonzero;stroke:none;stroke-width:1;stroke-linecap:butt;stroke-linejoin:miter;marker:none;marker-start:none;marker-mid:none;marker-end:none;stroke-miterlimit:4;stroke-dasharray:none;stroke-dashoffset:0;stroke-opacity:1;visibility:visible;display:inline;overflow:visible;enable-background:accumulate" />
  <path
     d="M 5.6608256,6.6608591 L 5.6608256,15.955214 C 29.482166,16.399105 48.724955,35.667903 49.162807,59.512191 L 58.512159,59.512191 C 58.070152,30.508228 34.637584,7.1023423 5.6608256,6.6608591 z"
     id="path3363"
     style="font-size:13.58991337px;font-style:normal;font-variant:normal;font-weight:bold;font-stretch:normal;text-align:start;line-height:125%;writing-mode:lr-tb;text-anchor:start;fill:url(#radialGradient2545);fill-opacity:1;fill-rule:nonzero;stroke:url(#linearGradient2547);stroke-width:0.97560966;stroke-linecap:round;stroke-linejoin:round;marker:none;marker-start:none;marker-mid:none;marker-end:none;stroke-miterlimit:4;stroke-dasharray:none;stroke-dashoffset:0;stroke-opacity:1;visibility:visible;display:inline;overflow:visible;enable-background:accumulate;font-family:Bitstream Vera Serif" />
  <path
     d="M 5.6608256,28.054374 L 5.6608256,36.413794 C 18.234342,36.8513 28.321224,46.927811 28.759222,59.512191 L 37.118643,59.512191 C 36.677113,42.28768 22.869445,28.49538 5.6608256,28.054374 z"
     id="path3361"
     style="font-size:13.58991337px;font-style:normal;font-variant:normal;font-weight:bold;font-stretch:normal;text-align:start;line-height:125%;writing-mode:lr-tb;text-anchor:start;fill:url(#radialGradient2545);fill-opacity:1;fill-rule:nonzero;stroke:url(#linearGradient2547);stroke-width:0.97560966;stroke-linecap:round;stroke-linejoin:round;marker:none;marker-start:none;marker-mid:none;marker-end:none;stroke-miterlimit:4;stroke-dasharray:none;stroke-dashoffset:0;stroke-opacity:1;visibility:visible;display:inline;overflow:visible;enable-background:accumulate;font-family:Bitstream Vera Serif" />
  <path
     d="M 11.059271,48.487808 C 9.4701812,48.487855 8.2479998,49.048792 7.1473901,50.156364 C 6.0452935,51.245733 5.4878055,52.430648 5.4878048,54.029798 C 5.4878048,55.603961 6.0491743,56.817787 7.1473901,57.903234 C 8.2423127,58.985486 9.4580033,59.512237 11.059271,59.512198 C 12.610879,59.512236 13.774381,58.988368 14.852612,57.903234 C 15.956709,56.792135 16.512178,55.57881 16.512195,54.029798 C 16.512178,52.430637 15.954706,51.245729 14.852612,50.156364 C 13.768711,49.045775 12.598393,48.487853 11.059271,48.487808 z"
     id="path2557"
     style="font-size:13.58991337px;font-style:normal;font-variant:normal;font-weight:bold;font-stretch:normal;text-align:start;line-height:125%;writing-mode:lr-tb;text-anchor:start;fill:url(#radialGradient3365);fill-opacity:1;fill-rule:nonzero;stroke:url(#linearGradient3367);stroke-width:0.97560966;stroke-linecap:round;stroke-linejoin:round;marker:none;marker-start:none;marker-mid:none;marker-end:none;stroke-miterlimit:4;stroke-dasharray:none;stroke-dashoffset:0;stroke-opacity:1;visibility:visible;display:inline;overflow:visible;enable-background:accumulate;font-family:Bitstream Vera Serif" />
  <path
     d="M 5.625,6.1875 C 5.3688252,6.1986723 5.1819903,6.424023 5.1875,6.6875 L 5.1875,15.9375 C 5.1848012,16.071341 5.2293897,16.22939 5.3125,16.3125 C 5.3956109,16.395611 5.5536552,16.440199 5.6875,16.4375 C 20.087284,16.705827 32.723548,23.917427 40.53125,34.875 C 40.639922,35.022169 40.846851,35.103196 41.03125,35.0625 L 51.09375,33.375 C 51.226663,33.343261 51.347341,33.22924 51.40625,33.09375 C 51.468758,32.949986 51.484368,32.825163 51.40625,32.6875 C 42.092239,17.039032 25.134184,6.4837851 5.6875,6.1875 C 5.6831579,6.1873615 5.62935,6.1873613 5.625,6.1875 z M 5.625,27.5625 C 5.368825,27.573673 5.1819903,27.799024 5.1875,28.0625 L 5.1875,36.4375 C 5.1819855,36.701207 5.3579329,36.894603 5.625,36.90625 C 9.0856087,37.026666 12.359858,37.919584 15.28125,39.375 C 15.363549,39.41232 15.485821,39.399861 15.59375,39.375 L 27.1875,37.375 C 27.362435,37.335324 27.483666,37.217147 27.53125,37.0625 C 27.579908,36.904361 27.553587,36.718169 27.4375,36.59375 C 21.753591,31.189188 14.121095,27.77863 5.6875,27.5625 C 5.683165,27.562362 5.6293744,27.562361 5.625,27.5625 z"
     id="path3355"
     style="opacity:0.2;fill:url(#linearGradient3357);fill-opacity:1;fill-rule:evenodd;stroke:none;stroke-width:1;stroke-linecap:butt;stroke-linejoin:miter;marker:none;marker-start:none;marker-mid:none;marker-end:none;stroke-miterlimit:4;stroke-dasharray:none;stroke-dashoffset:0;stroke-opacity:1;visibility:visible;display:inline;overflow:visible;enable-background:accumulate" />
  <path
     d="M 6.65625,7.71875 C 6.65625,10.177083 6.65625,12.635417 6.65625,15.09375 C 21.916283,15.561534 36.528907,24.443737 44.041638,37.721834 C 47.685665,44.025716 49.751453,51.22546 50.03125,58.5 C 52.5,58.5 54.96875,58.5 57.4375,58.5 C 57.016431,42.763117 48.999633,27.490425 36.343304,18.14387 C 27.818333,11.737932 17.314075,8.0533418 6.65625,7.71875 z"
     id="path3349"
     style="font-size:13.58991337px;font-style:normal;font-variant:normal;font-weight:bold;font-stretch:normal;text-align:start;line-height:125%;writing-mode:lr-tb;text-anchor:start;opacity:0.4;fill:none;fill-opacity:1;fill-rule:nonzero;stroke:url(#linearGradient3343);stroke-width:0.97600001;stroke-linecap:round;stroke-linejoin:miter;marker:none;marker-start:none;marker-mid:none;marker-end:none;stroke-miterlimit:4;stroke-dasharray:none;stroke-dashoffset:0;stroke-opacity:1;visibility:visible;display:inline;overflow:visible;enable-background:accumulate;font-family:Bitstream Vera Serif" />
  <path
     d="M 6.65625,29.1875 C 6.65625,31.302083 6.65625,33.416667 6.65625,35.53125 C 17.204529,36.140931 26.727447,44.246725 29.016563,54.560712 C 29.652765,56.246283 28.785255,59.245065 31.384353,58.5 C 32.922902,58.5 34.461451,58.5 36,58.5 C 35.468842,47.04766 28.008398,36.298558 17.471383,31.786038 C 14.060335,30.281341 10.377466,29.403057 6.65625,29.1875 z"
     id="path3347"
     style="font-size:13.58991337px;font-style:normal;font-variant:normal;font-weight:bold;font-stretch:normal;text-align:start;line-height:125%;writing-mode:lr-tb;text-anchor:start;opacity:0.4;fill:none;fill-opacity:1;fill-rule:nonzero;stroke:url(#linearGradient3353);stroke-width:0.97600001;stroke-linecap:round;stroke-linejoin:miter;marker:none;marker-start:none;marker-mid:none;marker-end:none;stroke-miterlimit:4;stroke-dasharray:none;stroke-dashoffset:0;stroke-opacity:1;visibility:visible;display:inline;overflow:visible;enable-background:accumulate;font-family:Bitstream Vera Serif" />
  <path
     d="M 11.0625,49.5 C 7.6734592,49.3375 5.1184541,53.715068 7.2585937,56.485258 C 8.8819855,59.146629 13.153874,59.186779 14.746261,56.469436 C 16.83677,53.70339 14.414593,49.44834 11.0625,49.5 z"
     id="path3338"
     style="font-size:13.58991337px;font-style:normal;font-variant:normal;font-weight:bold;font-stretch:normal;text-align:start;line-height:125%;writing-mode:lr-tb;text-anchor:start;opacity:0.4;fill:none;fill-opacity:1;fill-rule:nonzero;stroke:url(#linearGradient3351);stroke-width:0.97600001;stroke-linecap:round;stroke-linejoin:miter;marker:none;marker-start:none;marker-mid:none;marker-end:none;stroke-miterlimit:4;stroke-dasharray:none;stroke-dashoffset:0;stroke-opacity:1;visibility:visible;display:inline;overflow:visible;enable-background:accumulate;font-family:Bitstream Vera Serif" />
</svg>

<?xml version="1.0" encoding="UTF-8" standalone="no"?>
<!-- Created with Inkscape (http://www.inkscape.org/) -->
<svg id="svg3637" xmlns="http://www.w3.org/2000/svg" height="64" width="64" version="1.0" xmlns:xlink="http://www.w3.org/1999/xlink">
 <defs id="defs3639">
  <linearGradient id="linearGradient2490-113-765">
   <stop id="stop3686" style="stop-color:#861318" offset="0"/>
   <stop id="stop3688" style="stop-color:#f67e2a" offset="1"/>
  </linearGradient>
  <linearGradient id="linearGradient3839">
   <stop id="stop3841" style="stop-color:#ffed8c" offset="0"/>
   <stop id="stop3843" style="stop-color:#fb9858" offset=".26238"/>
   <stop id="stop3845" style="stop-color:#dc572a" offset=".66094"/>
   <stop id="stop3847" style="stop-color:#9f3110" offset="1"/>
  </linearGradient>
  <linearGradient id="linearGradient8265-821-176-38-919-66-249-7-7">
   <stop id="stop2687-1-9" style="stop-color:#fff" offset="0"/>
   <stop id="stop2689-5-4" style="stop-color:#fff;stop-opacity:0" offset="1"/>
  </linearGradient>
  <linearGradient id="linearGradient3688">
   <stop id="stop3690" offset="0"/>
   <stop id="stop3692" style="stop-opacity:0" offset="1"/>
  </linearGradient>
  <radialGradient id="radialGradient2464" xlink:href="#linearGradient3688" gradientUnits="userSpaceOnUse" cy="43.5" cx="4.993" gradientTransform="matrix(2.4045 0 0 .8 -52.014 -79.8)" r="2.5"/>
  <radialGradient id="radialGradient2466" xlink:href="#linearGradient3688" gradientUnits="userSpaceOnUse" cy="43.5" cx="4.993" gradientTransform="matrix(2.4045 0 0 .8 27.986 10.2)" r="2.5"/>
  <radialGradient id="radialGradient2505" xlink:href="#linearGradient3688" gradientUnits="userSpaceOnUse" cy="44.75" cx="-8.3117" gradientTransform="matrix(2.4045 0 0 1 30.986 14.75)" r="2.5"/>
  <radialGradient id="radialGradient2545" xlink:href="#linearGradient3839" gradientUnits="userSpaceOnUse" cy="10.291" cx="12.011" gradientTransform="matrix(7.9628e-8 2.7221 -3.9267 0 66.6 -13.809)" r="20"/>
  <linearGradient id="linearGradient2547" y2="3.899" xlink:href="#linearGradient2490-113-765" gradientUnits="userSpaceOnUse" x2="24" gradientTransform="matrix(1.3213 0 0 1.3213 .37569 1.3327)" y1="44" x1="24"/>
  <linearGradient id="linearGradient3343" y2="44.461" xlink:href="#linearGradient8265-821-176-38-919-66-249-7-7" gradientUnits="userSpaceOnUse" x2="29.072" gradientTransform="matrix(1.3213 0 0 1.3213 .37569 1.3327)" y1="3.6634" x1="29.072"/>
  <linearGradient id="linearGradient3351" y2="43.643" xlink:href="#linearGradient8265-821-176-38-919-66-249-7-7" gradientUnits="userSpaceOnUse" x2="10.39" gradientTransform="matrix(1.3213 0 0 1.3213 .37569 1.3327)" y1="36.082" x1="10.39"/>
  <linearGradient id="linearGradient3353" y2="43.808" xlink:href="#linearGradient8265-821-176-38-919-66-249-7-7" gradientUnits="userSpaceOnUse" x2="15.858" gradientTransform="matrix(1.3213 0 0 1.3213 .37569 1.3327)" y1="20.712" x1="15.858"/>
  <linearGradient id="linearGradient3357" y2="24.628" xlink:href="#linearGradient8265-821-176-38-919-66-249-7-7" gradientUnits="userSpaceOnUse" x2="20.055" gradientTransform="matrix(1.2972 0 0 1.3791 5.5438 6.9212)" y1="15.298" x1="16.626"/>
  <radialGradient id="radialGradient3365" xlink:href="#linearGradient3839" gradientUnits="userSpaceOnUse" cy="10.291" cx="19.043" gradientTransform="matrix(0 1.7627 -2.5427 -7.4378e-8 52.358 2.8689)" r="20"/>
  <linearGradient id="linearGradient3367" y2="26.613" xlink:href="#linearGradient2490-113-765" gradientUnits="userSpaceOnUse" x2="24" gradientTransform="matrix(1.3213 0 0 1.3213 .37569 1.3327)" y1="44" x1="24"/>
 </defs>
 <g id="g3619" transform="matrix(1.3333 0 0 1.3333 -20.333 -.66667)">
  <rect id="rect3621" style="opacity:.3;fill:url(#radialGradient2464)" transform="scale(-1)" height="4" width="6" y="-47" x="-40"/>
  <rect id="rect3623" style="opacity:.3;fill:url(#radialGradient2466)" height="4" width="6" y="43" x="40"/>
 </g>
 <g id="g3615" transform="matrix(1.3333 0 0 1.3333 .66667 -.66667)">
  <rect id="rect3611" style="opacity:.3;fill:url(#radialGradient2464)" transform="scale(-1)" height="4" width="6" y="-47" x="-40"/>
  <rect id="rect2801" style="opacity:.3;fill:url(#radialGradient2466)" height="4" width="6" y="43" x="40"/>
 </g>
 <path id="path3629" style="opacity:.3;fill:url(#radialGradient2505)" d="m17 59.5c0 1.381-2.686 2.5-6 2.5-3.3137 0-6-1.119-6-2.5s2.6863-2.5 6-2.5c3.314 0 6 1.119 6 2.5z"/>
 <path id="path3363" style="stroke-linejoin:round;stroke:url(#linearGradient2547);stroke-linecap:round;stroke-width:.97561;fill:url(#radialGradient2545)" d="m5.6608 6.6609v9.2941c23.821 0.444 43.064 19.713 43.502 43.557h9.349c-0.442-29.004-23.874-52.41-52.851-52.851z"/>
 <path id="path3361" style="stroke-linejoin:round;stroke:url(#linearGradient2547);stroke-linecap:round;stroke-width:.97561;fill:url(#radialGradient2545)" d="m5.6608 28.054v8.36c12.573 0.437 22.66 10.514 23.098 23.098h8.36c-0.442-17.224-14.25-31.017-31.458-31.458z"/>
 <path id="path2557" style="stroke-linejoin:round;stroke:url(#linearGradient3367);stroke-linecap:round;stroke-width:.97561;fill:url(#radialGradient3365)" d="m11.059 48.488c-1.5888 0-2.811 0.561-3.9116 1.668-1.1021 1.09-1.6596 2.275-1.6596 3.874 0 1.574 0.5614 2.788 1.6596 3.873 1.0949 1.082 2.3106 1.609 3.9116 1.609 1.552 0 2.715-0.524 3.794-1.609 1.104-1.111 1.659-2.324 1.659-3.873 0-1.599-0.557-2.784-1.659-3.874-1.084-1.11-2.255-1.668-3.794-1.668z"/>
 <path id="path3355" style="opacity:.2;fill-rule:evenodd;fill:url(#linearGradient3357)" d="m5.625 6.1875c-0.2562 0.0112-0.443 0.2365-0.4375 0.5v9.2505c-0.0027 0.133 0.0419 0.291 0.125 0.374 0.0831 0.084 0.2412 0.128 0.375 0.126 14.4 0.268 27.036 7.479 34.844 18.437 0.108 0.147 0.315 0.228 0.499 0.187l10.063-1.687c0.133-0.032 0.253-0.146 0.312-0.281 0.063-0.144 0.078-0.269 0-0.406-9.314-15.649-26.272-26.204-45.718-26.5-0.0048-0.0006-0.0586-0.0006-0.063-0.0005zm0 21.374c-0.2562 0.012-0.443 0.237-0.4375 0.5v8.376c-0.0055 0.263 0.1704 0.457 0.4375 0.468 3.4606 0.121 6.735 1.014 9.656 2.469 0.083 0.037 0.205 0.025 0.313 0l11.594-2c0.174-0.04 0.296-0.158 0.343-0.313 0.049-0.158 0.023-0.344-0.093-0.468-5.684-5.405-13.317-8.815-21.75-9.032h-0.063z"/>
 <path id="path3349" style="opacity:.4;stroke:url(#linearGradient3343);stroke-linecap:round;stroke-width:0.976;fill:none" d="m6.6562 7.7188v7.3752c15.26 0.468 29.873 9.35 37.386 22.628 3.644 6.304 5.709 13.503 5.989 20.778h7.407c-0.422-15.737-8.438-31.01-21.095-40.356-8.525-6.406-19.029-10.091-29.687-10.425z"/>
 <path id="path3347" style="opacity:.4;stroke:url(#linearGradient3353);stroke-linecap:round;stroke-width:0.976;fill:none" d="m6.6562 29.188v6.343c10.549 0.61 20.071 8.716 22.361 19.03 0.636 1.685-0.232 4.684 2.367 3.939h4.616c-0.531-11.452-7.992-22.201-18.529-26.714-3.411-1.505-7.094-2.383-10.815-2.598z"/>
 <path id="path3338" style="opacity:.4;stroke:url(#linearGradient3351);stroke-linecap:round;stroke-width:0.976;fill:none" d="m11.062 49.5c-3.3885-0.162-5.9435 4.215-3.8034 6.985 1.6234 2.662 5.8954 2.702 7.4874-0.016 2.091-2.766-0.331-7.021-3.684-6.969z"/>
</svg>
